X: 2
T: Nice And Easy
M: 9/8
L: 1/8
R: slip jig
K: G Major
|: (3A/B/c/ |
B3- BdA BAG | E2 A ABG FGA |
[1 B3 B/c/dA BAG | E2 G GAF G2 :|
[2 DD/D/D GAc BAG | ec/d/e dBA G2 ||
(3B/c/d/ |
e3- e2 f gec | d3- dge dBG |
[1 A>BA DFA cBA | B>dB DGB d2 :| 
[2 c3 B/c/dB cAF | D2 D AA/G/F G2 |]
